packages/core/src/svgs/tokens/mono/TEL.svg

<svg width="24" height="24" viewBox="0 0 24 24" fill="none" xmlns="http://www.w3.org/2000/svg">
<path d="M21.0855 7.47754C21.4116 7.76955 21.6631 8.13544 21.8186 8.54459C21.9742 8.95374 22.0295 9.39415 21.9799 9.82917L20.6165 17.3593C20.5101 17.7877 20.3039 18.1849 20.0148 18.5187C19.7257 18.8523 19.3617 19.1129 18.9528 19.2793L11.5291 21.881C11.0975 22.0073 10.6427 22.0335 10.1995 21.9576C9.7562 21.8817 9.33621 21.7058 8.97109 21.4432L2.91074 16.5274C2.58358 16.2351 2.33193 15.868 2.17729 15.4575C2.02266 15.047 1.9696 14.6051 2.02265 14.1696L3.37981 6.63948C3.48576 6.21079 3.69176 5.8133 3.98092 5.47957C4.2701 5.14582 4.6342 4.88534 5.04344 4.71943L12.4735 2.11768C12.9041 1.99243 13.3577 1.96676 13.7997 2.0426C14.2419 2.11845 14.6608 2.29382 15.0252 2.55548L21.0855 7.47754ZM14.7688 10.7485L15.069 9.49761H12.2357L12.636 6.99596H11.7229C11.06 8.00915 10.0968 9.05986 8.97109 9.49761L8.71466 10.7485H10.3471C10.3471 10.7485 9.79035 12.7186 9.65274 13.4191C9.3025 15.2015 9.92169 16.3773 11.2789 16.3773H13.5679L13.8556 15.1265H11.9356C11.0851 15.1265 11.1351 14.6573 11.2977 13.8318L11.9356 10.7485H14.7688Z" fill="white"/>
</svg>

<svg xmlns="http://www.w3.org/2000/svg" width="24" height="24" fill="none" viewBox="0 0 24 24">
    <path fill="#fff" d="M21.086 7.478a2.74 2.74 0 0 1 .894 2.351l-1.364 7.53a2.8 2.8 0 0 1-1.663 1.92l-7.424 2.602a2.96 2.96 0 0 1-2.558-.438l-6.06-4.916a2.72 2.72 0 0 1-.888-2.357L3.38 6.64a2.8 2.8 0 0 1 1.663-1.92l7.43-2.602a2.96 2.96 0 0 1 2.552.437zm-6.317 3.27.3-1.25h-2.833l.4-2.502h-.913C11.06 8.009 10.097 9.06 8.97 9.498l-.256 1.25h1.632s-.557 1.97-.694 2.671c-.35 1.782.269 2.958 1.626 2.958h2.289l.288-1.25h-1.92c-.85 0-.8-.47-.638-1.295l.638-3.084z"/>
</svg>
